Suru++-Ubuntu/apps/symbolic/com.obsproject.Studio-symbolic.svg

<svg width="16" height="16" version="1.1" xmlns="http://www.w3.org/2000/svg">
 <path d="m8 0.49986797c-4.14782 0-7.5 3.3524409-7.5 7.5002452 0 4.1478428 3.35218 7.5000188 7.5 7.5000188 4.147819 0 7.499999-3.352176 7.499999-7.5000188 0-4.1478043-3.35218-7.5002452-7.499999-7.5002452zm-2.174393 0.70979533c0.0064-0.0014 0.01058-3.402e-4 0.01209 0.00178 0.01172 0.015118-0.08058 0.1205669-0.302097 0.3552755-0.489059 0.5179091-0.795934 1.136202-0.909751 1.8329957-0.208479 1.2764598 0.433935 2.6619967 1.569728 3.3854737 1.005381 0.640366 2.551465 0.640063 3.554408-0.0011 0.372359-0.237732 0.876184-0.72839 1.049404-1.0216439 0.112365-0.1901102 0.143282-0.2018268 0.441985-0.1617638 0.973202 0.1303937 1.75239 0.5063057 2.423169 1.1692727 0.642811 0.635414 1.038104 1.371741 1.165281 2.170393 0.04301 0.269859 0.03908 0.266457-0.09309-0.08542-0.555163-1.477302-2.165567-2.415985-3.70032-2.157126-2.11156 0.356032-3.342968 2.425399-2.664679 4.4776818l0.185688 0.561865-0.148422 0.20863c-0.449461 0.631105-1.408309 1.30405-2.207429 1.54919-0.500969 0.153827-1.46123 0.185575-1.987937 0.06576-0.594338-0.135307-0.651175-0.207496-0.115125-0.147023 1.317037 0.149291 2.726034-0.651062 3.334666-1.893846 0.892955-1.8232818-0.0072-4.0229288-1.914353-4.6791308-0.215698-0.07408-0.581601-0.156472-0.813147-0.182551-0.409942-0.04649-0.424165-0.05518-0.534837-0.331465-0.189845-0.474482-0.319256-1.1303052-0.320088-1.6242894-0.0013-0.574148 0.213203-1.4434394 0.477275-1.9346268 0.229153-0.4261795 1.03618-1.3034456 1.38102-1.5008881 0.0576-0.034016 0.09721-0.053291 0.116372-0.057449z" style="fill:#808080"/>
</svg>

<svg xmlns="http://www.w3.org/2000/svg" width="16" height="16" version="1.1">
 <path d="m 8,0.49986797 c -4.14782,0 -7.5,3.35244093 -7.5,7.50024523 0,4.1478428 3.35218,7.5000188 7.5,7.5000188 4.147819,0 7.499999,-3.352176 7.499999,-7.5000188 C 15.499999,3.8523089 12.147819,0.49986797 8,0.49986797 Z M 5.825607,1.2096633 c 0.0064,-0.0014 0.01058,-3.402e-4 0.01209,0.00178 C 5.849417,1.2265613 5.757117,1.3320102 5.5356,1.5667188 5.046541,2.0846279 4.739666,2.7029208 4.625849,3.3997145 4.41737,4.6761743 5.059784,6.0617112 6.195577,6.7851882 c 1.005381,0.640366 2.551465,0.640063 3.554408,-0.0011 0.372359,-0.237732 0.876184,-0.72839 1.049404,-1.0216439 0.112365,-0.1901102 0.143282,-0.2018268 0.441985,-0.1617638 0.973202,0.1303937 1.75239,0.5063057 2.423169,1.1692727 0.642811,0.635414 1.038104,1.371741 1.165281,2.170393 0.04301,0.269859 0.03908,0.266457 -0.09309,-0.08542 -0.555163,-1.477302 -2.165567,-2.415985 -3.70032,-2.157126 -2.11156,0.356032 -3.342968,2.425399 -2.664679,4.4776818 l 0.185688,0.561865 -0.148422,0.20863 c -0.449461,0.631105 -1.408309,1.30405 -2.207429,1.54919 -0.500969,0.153827 -1.46123,0.185575 -1.987937,0.06576 C 3.619297,13.42562 3.56246,13.353431 4.09851,13.413904 5.415547,13.563195 6.824544,12.762842 7.433176,11.520058 8.326131,9.6967762 7.425976,7.4971292 5.518823,6.8409272 5.303125,6.7668472 4.937222,6.6844552 4.705676,6.6583762 4.295734,6.6118862 4.281511,6.6031962 4.170839,6.3269112 3.980994,5.8524292 3.851583,5.196606 3.850751,4.7026218 3.849451,4.1284738 4.063954,3.2591824 4.328026,2.767995 4.557179,2.3418155 5.364206,1.4645494 5.709046,1.2671069 c 0.0576,-0.034016 0.09721,-0.053291 0.116372,-0.057449 z" style="fill:#808080"/>
</svg>
